static/images/platforms/light/gatsby.svg

<svg width="32" height="32" viewBox="0 0 32 32" fill="none" xmlns="http://www.w3.org/2000/svg">
    <path fill-rule="evenodd" clip-rule="evenodd"
        d="M15.9998 29.3334C23.3636 29.3334 29.3332 23.3638 29.3332 16C29.3332 8.63622 23.3636 2.66669 15.9998 2.66669C8.63604 2.66669 2.6665 8.63622 2.6665 16C2.6665 23.3638 8.63604 29.3334 15.9998 29.3334ZM8.57127 23.4286C6.57127 21.4286 5.52365 18.7619 5.52365 16.1905L15.9046 26.4762C13.2379 26.381 10.5713 25.4286 8.57127 23.4286ZM5.80941 13.7143L18.2856 26.1905C22.9523 25.1429 26.4761 20.9524 26.4761 16H19.8094V17.9048H24.3808C23.7142 20.7619 21.6189 23.1429 18.857 24.0953L7.90465 13.1429C9.14274 9.80954 12.2856 7.42859 15.9999 7.42859C18.857 7.42859 21.4285 8.85716 23.0475 11.0476L24.4761 9.80954C22.5713 7.23812 19.5237 5.52383 15.9999 5.52383C11.0475 5.52383 6.85703 9.04764 5.80941 13.7143Z"
        fill="#56565C" />
</svg>

<svg fill="none" viewBox="0 0 32 32">
    <path fill="#56565C" fill-rule="evenodd"
        d="M16 29.333c7.364 0 13.333-5.97 13.333-13.333 0-7.364-5.97-13.333-13.333-13.333C8.636 2.667 2.666 8.637 2.666 16c0 7.364 5.97 13.333 13.334 13.333ZM8.57 23.43c-2-2-3.047-4.667-3.047-7.238l10.38 10.285c-2.666-.095-5.333-1.047-7.333-3.047Zm-2.76-9.716L18.286 26.19c4.666-1.047 8.19-5.238 8.19-10.19H19.81v1.905h4.572c-.667 2.857-2.762 5.238-5.524 6.19L7.905 13.143C9.143 9.81 12.285 7.429 16 7.429c2.857 0 5.428 1.428 7.047 3.619l1.43-1.238C22.57 7.238 19.523 5.524 16 5.524c-4.953 0-9.143 3.524-10.19 8.19Z"
        clip-rule="evenodd" />
</svg>
